X:126
T:Clydesdale Lasses
R:Reel
B:The Athole Collection
M:C|
L:1/8
K:F
c|:AFcF dFcF|AFcF ABcB|AFcF dFcA|1 BAGA BcdB:|2 BAGA Bcde||
fgag f2 cf|gfga baga|fgag fcAc|BAGA Bcde|fgag f2 cf|gfga baga|fgaf gefc|
BAGA BcdB||

